src/22/actions/irc-operator.svg

<svg xmlns="http://www.w3.org/2000/svg" viewBox="0 0 22 22"><path d="M7 3v4H3v1h4v6H3v1h4v4h1v-4h6v4h1v-4h4v-1h-4V8h4V7h-4V3h-1v4H8V3H7zm1 5h6v6H8V8z" fill="currentColor" color="#5d656b"/></svg>

<svg xmlns="http://www.w3.org/2000/svg" viewBox="0 0 22 22">
  <defs id="defs3051">
    <style type="text/css" id="current-color-scheme">
      .ColorScheme-Text {
        color:#5d656b;
      }
      </style>
  </defs>
 <path 
     style="fill:currentColor;fill-opacity:1;stroke:none" 
     d="M 7 3 L 7 7 L 3 7 L 3 8 L 7 8 L 7 14 L 3 14 L 3 15 L 7 15 L 7 19 L 8 19 L 8 15 L 14 15 L 14 19 L 15 19 L 15 15 L 19 15 L 19 14 L 15 14 L 15 8 L 19 8 L 19 7 L 15 7 L 15 3 L 14 3 L 14 7 L 8 7 L 8 3 L 7 3 z M 8 8 L 14 8 L 14 14 L 8 14 L 8 8 z "
     class="ColorScheme-Text"
     />
</svg>
